X: 43101
T: Winding Roads Of Advance
R: reel
M: 4/4
K: Bminor
f~B3 fBdB|c~A3 EAce|fBBg fece|fabf afeg|
f~B3 fBdB|c~A3 EAce|fBBg fecd|1 Acec cBB2:|2 ABcA Bcde||
fdBc d3e|fBBa gabg|fdBc dfed|c2Ac EAce|
f2BA dcBA|FBBc B2 (3cde|f2 bf af (3efg|1 ~f3 b fcde:|2 f2df ebag||

